X:274
T:Polska efter Blinde Johan
T:(SvL Halland 274)
R:Polska
S:Karl Stenström
S:Blinde Johan
O:Eftra, Halland
B:Svenska Låtar Halland
M:3/4
L:1/8
K:G
D|G>(B F>)A G2|((3GBe) d2 G2|G>e e>d B>c|Az/A/ ((3AGB) g2|
G>B F>A G2|((3GBe) d2 G2|G>e ez/d/ Bz/c/|((3AFA) G3:|
|:D|Bz/A/ G2 D>>G|((3BAG) [FB,]3 G|A>G Fz/F/ D2|BA Gz/G/ D2|
B>A G2 D>>G|(3B(AG) F3 A|cz/d/ Bz/c/ Az/[df]/|[gB]2 [gB]2 z:|

